X: 944
T:Summertime with chords
Z:https://nigelgatherer.com/
M:4/4
Q=50
L:1/8
K:Bb
{^c}dB | "Gm" {^c}d- d3- "D7" d4- | "Gm" d2 cB "D7" cdB{^F}G- | "Gm" G D3- "D7" D4- | "Gm" D4 {^c}(3d2"D7" =c2B2 |
"Cm" {^B}c- c7- | "Cm" c2 BG Bc B2 | "D7" {^G}A- A7- | "D7" A2 (3G,BD GABc |
"Gm" {^c}d- d3- "D7" d4- | "Gm" d2 cB "D7" cdB{^c}G- | "Gm" G D3- "D7" D4- | "Gm" D4- "D7" D4 |
"Bb" F2 DF "Gm" G B3 | "Cm" {c}_d c3- "D7" cBGF | "Gm"{^F}G- G3- "D7" G4- | "Gm" G4- "D7" G2 |]

